src/topics/icons/fleep.svg

<svg height="291" preserveAspectRatio="xMidYMid" viewBox="0 0 256 291" width="256" xmlns="http://www.w3.org/2000/svg"><path d="m13.6260812 255.829674c-7.49434467 0-13.6260812-6.131737-13.6260812-13.626081v-228.2368598-.340652c0-7.49434467 6.13173653-13.6260812 13.6260812-13.6260812h228.4071858c7.66467 0 13.966733 6.30206254 13.966733 13.9667332v228.4071858c0 7.494344-6.131737 13.626081-13.626081 13.626081h-.340652-59.954757l-.510978-.681304-39.515636 34.065203c-.681304.510978-1.532934.85163-2.55489.85163-1.873586 0-3.40652-1.532934-3.40652-3.40652v-30.999335h-.340652z" fill="#36a7a6"/><path d="m120.101929 183.741276h16.689373v29.461853h-70.1634874v-29.461853h16.6893733v-113.4196184h-16.6893733v-29.8024523h125.0000004v46.4918256h-29.972752v-16.6893733h-41.212535-.340599v41.5531334h41.553134v30.313352h-41.553134z" fill="#fff"/></svg>

<?xml version="1.0" encoding="UTF-8" standalone="no"?>
<svg width="256px" height="291px" viewBox="0 0 256 291" version="1.1" xmlns="http://www.w3.org/2000/svg" xmlns:xlink="http://www.w3.org/1999/xlink" preserveAspectRatio="xMidYMid">
	<g>
		<path d="M13.6260812,255.829674 C6.13173653,255.829674 0,249.697937 0,242.203593 L0,13.9667332 L0,13.6260812 C0,6.13173653 6.13173653,0 13.6260812,0 L242.033267,0 C249.697937,0 256,6.30206254 256,13.9667332 L256,242.373919 C256,249.868263 249.868263,256 242.373919,256 L242.033267,256 L182.07851,256 L181.567532,255.318696 L142.051896,289.383899 C141.370592,289.894877 140.518962,290.235529 139.497006,290.235529 C137.62342,290.235529 136.090486,288.702595 136.090486,286.829009 L136.090486,255.829674 L135.749834,255.829674 L13.6260812,255.829674 L13.6260812,255.829674 Z" fill="#36A7A6"></path>
		<path d="M120.101929,183.741276 L136.791302,183.741276 L136.791302,213.203129 L66.6278146,213.203129 L66.6278146,183.741276 L83.3171879,183.741276 L83.3171879,70.3216576 L66.6278146,70.3216576 L66.6278146,40.5192053 L191.627815,40.5192053 L191.627815,87.0110309 L161.655063,87.0110309 L161.655063,70.3216576 L120.442528,70.3216576 L120.101929,70.3216576 L120.101929,111.874791 L161.655063,111.874791 L161.655063,142.188143 L120.101929,142.188143 L120.101929,183.741276 Z" fill="#FFFFFF"></path>
	</g>
</svg>
